app/src/main/assets/symbols/tourist/view_point.svg

<?xml version="1.0" encoding="UTF-8" standalone="no"?>
<svg
   xmlns:dc="http://purl.org/dc/elements/1.1/"
   xmlns:cc="http://creativecommons.org/ns#"
   xmlns:rdf="http://www.w3.org/1999/02/22-rdf-syntax-ns#"
   xmlns:svg="http://www.w3.org/2000/svg"
   xmlns="http://www.w3.org/2000/svg"
   version="1.1"
   width="16"
   height="16"
   viewBox="0 0 16 16"
   id="svg2">
  <metadata id="metadata8">
    <rdf:RDF>
      <cc:Work rdf:about="">
        <dc:format>image/svg+xml</dc:format>
        <dc:type rdf:resource="http://purl.org/dc/dcmitype/StillImage"/>
        <dc:title/>
      </cc:Work>
    </rdf:RDF>
  </metadata>
  <defs id="defs6"/>
  <rect width="16" height="16" x="0" y="0" id="canvas" style="fill:none;stroke:none;visibility:hidden"/>
  <path d="m 9.65625,0.59375 c -0.3024732,0.0462641 -0.5739493,0.24857188 -0.75,0.5 C 8.4915325,1.6542533 8.3846231,2.3479287 8.1875,3 7.9662603,3.8420605 7.7522058,4.7006473 7.625,5.5625 7.6044,5.8106582 7.7926492,5.8644805 8.03125,5.625 8.8564261,4.8565483 9.6689927,4.0447405 10.46875,3.25 10.66307,3.0435127 10.857947,2.8397801 11,2.59375 c 0.22114,-0.3696454 0.325018,-0.8581921 0.09375,-1.25 -0.238762,-0.3960416 -0.675926,-0.6652283 -1.125,-0.75 -0.1037376,-0.0197567 -0.2116756,-0.0154214 -0.3125,0 z m -5.4375,0.0625 C 3.756376,0.664435 3.298377,0.9038402 3,1.25 2.7236959,1.5695061 2.7337489,2.0351336 2.90625,2.40625 3.1835185,3.0459969 3.721958,3.5026801 4.1875,4 4.8053738,4.6133884 5.4428785,5.2080755 6.125,5.75 6.3294366,5.8921706 6.4627003,5.7639689 6.375,5.4375 6.1234386,4.3383434 5.8495515,3.246582 5.5625,2.15625 5.4811703,1.8846207 5.3917386,1.5899614 5.25,1.34375 5.0409086,0.9671579 4.6737053,0.6524279 4.21875,0.65625 z M 1,5.65625 C 0.6728589,5.7133884 0.35581084,5.8906685 0.1875,6.1875 -0.03684961,6.5918816 -0.05657638,7.0996758 0.09375,7.53125 0.23204898,7.9303783 0.65487609,8.1823302 1.0625,8.21875 1.7551236,8.2989321 2.398939,8.029096 3.0625,7.875 3.9027885,7.6471232 4.7519195,7.4130156 5.5625,7.09375 5.787908,6.9879268 5.7327889,6.7749958 5.40625,6.6875 4.3287785,6.3551066 3.2438454,6.0472518 2.15625,5.75 1.8803888,5.6844434 1.596594,5.6567822 1.3125,5.65625 1.2048302,5.6543848 1.109047,5.6372039 1,5.65625 z m 11.6875,0 C 12.403405,5.6567822 12.119611,5.684443 11.84375,5.75 10.756155,6.0472518 9.6712203,6.3551066 8.59375,6.6875 8.2672114,6.7749958 8.21209,6.9879301 8.4375,7.09375 c 0.8105812,0.3192656 1.659711,0.5533732 2.5,0.78125 0.663559,0.154096 1.307371,0.4239353 2,0.34375 0.407624,-0.03642 0.830451,-0.2883717 0.96875,-0.6875 C 14.056568,7.0996758 14.036852,6.5918816 13.8125,6.1875 13.588087,5.7917247 13.118179,5.64879 12.6875,5.65625 z M 6.28125,8.0625 C 6.24107,8.0647215 6.1761092,8.0894573 6.125,8.125 5.4428785,8.6669264 4.8053738,9.2928641 4.1875,9.90625 3.721958,10.403571 3.1835185,10.829001 2.90625,11.46875 2.7337489,11.839865 2.7236959,12.305494 3,12.625 3.298377,12.97116 3.756376,13.241771 4.21875,13.25 4.6737053,13.253823 5.0409086,12.90784 5.25,12.53125 5.3917386,12.285037 5.48117,12.02163 5.5625,11.75 5.8495515,10.659668 6.1234386,9.5366567 6.375,8.4375 6.4407752,8.1926478 6.4017899,8.0558356 6.28125,8.0625 z M 7.75,8.125 C 7.676409,8.138699 7.6147,8.21967 7.625,8.34375 c 0.1272058,0.8618534 0.3412603,1.689188 0.5625,2.53125 0.1971231,0.652072 0.3040361,1.376995 0.71875,1.9375 0.2347344,0.335235 0.6475495,0.54778 1.0625,0.46875 0.449074,-0.08477 0.886238,-0.353959 1.125,-0.75 C 11.325022,12.139441 11.22114,11.650893 11,11.28125 10.857947,11.035219 10.66307,10.831485 10.46875,10.625 9.6689927,9.8302564 8.8564261,9.0496977 8.03125,8.28125 7.9119496,8.1615102 7.8235913,8.1113005 7.75,8.125 z" id="viewpoint" style="fill:#734a08;fill-opacity:1" transform="translate(1,1)"/>
</svg>

<?xml version="1.0" encoding="UTF-8"?>
<svg version="1.1" viewBox="0 0 16 16" xmlns="http://www.w3.org/2000/svg" xmlns:cc="http://creativecommons.org/ns#" xmlns:dc="http://purl.org/dc/elements/1.1/" xmlns:rdf="http://www.w3.org/1999/02/22-rdf-syntax-ns#">
<metadata>
<rdf:RDF>
<cc:Work rdf:about="">
<dc:format>image/svg+xml</dc:format>
<dc:type rdf:resource="http://purl.org/dc/dcmitype/StillImage"/>
<dc:title/>
</cc:Work>
</rdf:RDF>
</metadata>
<rect width="16" height="16" fill="none" visibility="hidden"/>
<path transform="translate(1,1)" d="m9.6562 0.59375c-0.30247 0.046264-0.57395 0.24857-0.75 0.5-0.41472 0.5605-0.52163 1.2542-0.71875 1.9062-0.22124 0.84206-0.43529 1.7006-0.5625 2.5625-0.0206 0.24816 0.16765 0.30198 0.40625 0.0625 0.82518-0.76845 1.6377-1.5803 2.4375-2.375 0.19432-0.20649 0.3892-0.41022 0.53125-0.65625 0.22114-0.36965 0.32502-0.85819 0.09375-1.25-0.23876-0.39604-0.67593-0.66523-1.125-0.75-0.10374-0.019757-0.21168-0.015421-0.3125 0zm-5.4375 0.0625c-0.46237 0.008185-0.92037 0.24759-1.2188 0.59375-0.2763 0.31951-0.26625 0.78513-0.09375 1.1562 0.27727 0.63975 0.81571 1.0964 1.2812 1.5938 0.61787 0.61339 1.2554 1.2081 1.9375 1.75 0.20444 0.14217 0.3377 0.013969 0.25-0.3125-0.25156-1.0992-0.52545-2.1909-0.8125-3.2812-0.08133-0.27163-0.17076-0.56629-0.3125-0.8125-0.20909-0.37659-0.57629-0.69132-1.0312-0.6875zm-3.2188 5c-0.32714 0.057138-0.64419 0.23442-0.8125 0.53125-0.22435 0.40438-0.24408 0.91218-0.09375 1.3438 0.1383 0.39913 0.56113 0.65108 0.96875 0.6875 0.69262 0.080182 1.3364-0.18965 2-0.34375 0.84029-0.22788 1.6894-0.46198 2.5-0.78125 0.22541-0.10582 0.17029-0.31875-0.15625-0.40625-1.0775-0.33239-2.1624-0.64025-3.25-0.9375-0.27586-0.065557-0.55966-0.093218-0.84375-0.09375-0.10767-0.0018652-0.20345-0.019046-0.3125 0zm11.688 0c-0.2841 5.322e-4 -0.56789 0.028193-0.84375 0.09375-1.0876 0.29725-2.1725 0.60511-3.25 0.9375-0.32654 0.087496-0.38166 0.30043-0.15625 0.40625 0.81058 0.31927 1.6597 0.55337 2.5 0.78125 0.66356 0.1541 1.3074 0.42394 2 0.34375 0.40762-0.03642 0.83045-0.28837 0.96875-0.6875 0.15032-0.43157 0.1306-0.93937-0.09375-1.3438-0.22441-0.39578-0.69432-0.53871-1.125-0.53125zm-6.4062 2.4062c-0.04018 0.0022215-0.10514 0.026957-0.15625 0.0625-0.68212 0.54193-1.3196 1.1679-1.9375 1.7812-0.46554 0.49732-1.004 0.92275-1.2812 1.5625-0.1725 0.37112-0.18255 0.83674 0.09375 1.1562 0.29838 0.34616 0.75638 0.61677 1.2188 0.625 0.45496 0.003823 0.82216-0.34216 1.0312-0.71875 0.14174-0.24621 0.23117-0.50962 0.3125-0.78125 0.28705-1.0903 0.56094-2.2133 0.8125-3.3125 0.065775-0.24485 0.02679-0.38166-0.09375-0.375zm1.4688 0.0625c-0.073591 0.013699-0.1353 0.09467-0.125 0.21875 0.12721 0.86185 0.34126 1.6892 0.5625 2.5312 0.19712 0.65207 0.30404 1.377 0.71875 1.9375 0.23473 0.33524 0.64755 0.54778 1.0625 0.46875 0.44907-0.08477 0.88624-0.35396 1.125-0.75 0.23127-0.39181 0.12739-0.88036-0.09375-1.25-0.14205-0.24603-0.33693-0.44976-0.53125-0.65625-0.79976-0.79474-1.6123-1.5753-2.4375-2.3438-0.1193-0.11974-0.20766-0.16995-0.28125-0.15625z" fill="#734a08"/>
</svg>
